templates/flag_icons/hk.svg

<?xml version="1.0" encoding="UTF-8" standalone="no"?>
<svg width="23px" height="17px" viewBox="0 0 23 17" version="1.1" xmlns="http://www.w3.org/2000/svg" xmlns:xlink="http://www.w3.org/1999/xlink">
    <!-- Generator: Sketch 3.7.2 (28276) - http://www.bohemiancoding.com/sketch -->
    <title>HK</title>
    <desc>Created with Sketch.</desc>
    <defs>
        <linearGradient x1="50%" y1="0%" x2="50%" y2="100%" id="linearGradient-1">
            <stop stop-color="#FFFFFF" offset="0%"></stop>
            <stop stop-color="#F0F0F0" offset="100%"></stop>
        </linearGradient>
        <rect id="path-2" x="0" y="0" width="21" height="15" rx="1.5"></rect>
        <filter x="-50%" y="-50%" width="200%" height="200%" filterUnits="objectBoundingBox" id="filter-4">
            <feOffset dx="0" dy="0.5" in="SourceAlpha" result="shadowOffsetOuter1"></feOffset>
            <feGaussianBlur stdDeviation="0.5" in="shadowOffsetOuter1" result="shadowBlurOuter1"></feGaussianBlur>
            <feColorMatrix values="0 0 0 0 0   0 0 0 0 0   0 0 0 0 0  0 0 0 0.16 0" type="matrix" in="shadowBlurOuter1"></feColorMatrix>
        </filter>
        <linearGradient x1="50%" y1="0%" x2="50%" y2="100%" id="linearGradient-5">
            <stop stop-color="#F1371C" offset="0%"></stop>
            <stop stop-color="#DE290F" offset="100%"></stop>
        </linearGradient>
        <rect id="path-6" x="0" y="0" width="21" height="15"></rect>
        <filter x="-50%" y="-50%" width="200%" height="200%" filterUnits="objectBoundingBox" id="filter-7">
            <feMorphology radius="0.25" operator="dilate" in="SourceAlpha" result="shadowSpreadOuter1"></feMorphology>
            <feOffset dx="0" dy="0" in="shadowSpreadOuter1" result="shadowOffsetOuter1"></feOffset>
            <feColorMatrix values="0 0 0 0 0   0 0 0 0 0   0 0 0 0 0  0 0 0 0.06 0" type="matrix" in="shadowOffsetOuter1"></feColorMatrix>
        </filter>
        <path d="M12,7.19038043 C12.7979736,7.69038043 12.940099,7.69038043 13.5,7.69038043 C13.9563611,7.69038043 14.0511475,7.19038043 15,7.19038043 C15,6.36195331 14.1045695,5.69038043 13,5.69038043 C11.8954305,5.69038043 11,6.36195331 11,7.19038043 C11,7.5988818 11.2020264,6.69038043 12,7.19038043 Z M13.25,7 C13.3880712,7 13.5,6.88807119 13.5,6.75 C13.5,6.61192881 13.3880712,6.5 13.25,6.5 C13.1119288,6.5 13,6.61192881 13,6.75 C13,6.88807119 13.1119288,7 13.25,7 Z M11.4390537,8.96245671 C11.2101129,9.87588323 11.2540321,10.0110525 11.427051,10.54355 C11.5680743,10.9775752 12.0728932,10.9132139 12.3661047,11.8156263 C13.1539857,11.5596282 13.5159863,10.5004958 13.1746555,9.44998773 C12.8333248,8.39947971 11.9179178,7.75540213 11.1300368,8.01140019 C10.7415289,8.13763406 11.6679946,8.04903019 11.4390537,8.96245671 Z M12.0063875,10.0924466 C12.0490539,10.2237601 12.1900924,10.2956228 12.3214059,10.2529564 C12.4527194,10.2102901 12.5245821,10.0692516 12.4819158,9.93793807 C12.4392495,9.80662456 12.2982109,9.73476184 12.1668974,9.77742819 C12.0355839,9.82009453 11.9637212,9.96113306 12.0063875,10.0924466 Z M9.58036713,8.97656681 C8.64090028,9.04109544 8.52591844,9.12463464 8.07294902,9.45373619 C7.70374511,9.72197853 7.92095398,10.182201 7.15331615,10.7399226 C7.6402534,11.4101342 8.75941252,11.4271272 9.65302802,10.7778775 C10.5466435,10.1286279 10.8763214,9.05899318 10.3893841,8.38878155 C10.149273,8.058297 10.519834,8.91203817 9.58036713,8.97656681 Z M8.6809987,9.86531937 C8.56929676,9.94647558 8.54453456,10.102818 8.62569077,10.2145199 C8.70684697,10.3262219 8.86318939,10.3509841 8.97489133,10.2698279 C9.08659326,10.1886717 9.11135547,10.0323292 9.03019926,9.92062731 C8.94904305,9.80892537 8.79270064,9.78416317 8.6809987,9.86531937 Z M8.99258188,7.21321105 C8.64090028,6.33966542 8.52591844,6.25612622 8.07294902,5.92702467 C7.70374511,5.65878233 7.33316873,6.00757682 6.5655309,5.44985529 C6.07859365,6.12006691 6.40827151,7.18970163 7.30188701,7.83895129 C8.19550251,8.48820095 9.31466163,8.47120792 9.80159888,7.8009963 C10.04171,7.47051175 9.34426349,8.08675668 8.99258188,7.21321105 Z M7.86940783,6.63250049 C7.75770589,6.55134428 7.60136348,6.57610648 7.52020727,6.68780842 C7.43905106,6.79951036 7.46381327,6.95585278 7.5755152,7.03700898 C7.68721714,7.11816519 7.84355956,7.09340299 7.92471577,6.98170105 C8.00587197,6.86999911 7.98110977,6.71365669 7.86940783,6.63250049 Z M10.4879972,6.10928716 C11.2101129,5.50487763 11.2540321,5.36970838 11.427051,4.83721088 C11.5680743,4.40318566 11.1218367,4.15853 11.4150482,3.25611761 C10.6271672,3.00011955 9.7117602,3.64419713 9.37042945,4.69470515 C9.02909871,5.74521317 9.39109922,6.80434561 10.1789802,7.06034367 C10.5674881,7.18657754 9.76588156,6.71369668 10.4879972,6.10928716 Z M10.6932059,4.86163572 C10.7358723,4.73032222 10.6640096,4.58928369 10.532696,4.54661735 C10.4013825,4.503951 10.260344,4.57581372 10.2176777,4.70712723 C10.1750113,4.83844073 10.246874,4.97947926 10.3781876,5.02214561 C10.5095011,5.06481195 10.6505396,4.99294923 10.6932059,4.86163572 Z" id="path-8"></path>
        <filter x="-50%" y="-50%" width="200%" height="200%" filterUnits="objectBoundingBox" id="filter-9">
            <feOffset dx="0" dy="0.5" in="SourceAlpha" result="shadowOffsetOuter1"></feOffset>
            <feColorMatrix values="0 0 0 0 0   0 0 0 0 0   0 0 0 0 0  0 0 0 0.06 0" type="matrix" in="shadowOffsetOuter1"></feColorMatrix>
        </filter>
    </defs>
    <g id="Flag-Kit" stroke="none" stroke-width="1" fill="none" fill-rule="evenodd">
        <g id="HK">
            <g id="AE-Copy-6" transform="translate(1.000000, 1.000000)">
                <mask id="mask-3" fill="white">
                    <use xlink:href="#path-2"></use>
                </mask>
                <g id="Mask">
                    <use fill="black" fill-opacity="1" filter="url(#filter-4)" xlink:href="#path-2"></use>
                    <use fill="url(#linearGradient-1)" fill-rule="evenodd" xlink:href="#path-2"></use>
                </g>
                <g id="Rectangle-2" mask="url(#mask-3)">
                    <use fill="black" fill-opacity="1" filter="url(#filter-7)" xlink:href="#path-6"></use>
                    <use fill="url(#linearGradient-5)" fill-rule="evenodd" xlink:href="#path-6"></use>
                </g>
                <g id="Oval-145" mask="url(#mask-3)">
                    <use fill="black" fill-opacity="1" filter="url(#filter-9)" xlink:href="#path-8"></use>
                    <use fill="url(#linearGradient-1)" fill-rule="evenodd" xlink:href="#path-8"></use>
                </g>
                <rect id="Depth" mask="url(#mask-3)" x="0" y="0" width="21" height="15" rx="1.5"></rect>
            </g>
        </g>
    </g>
</svg>

<svg width="23" height="17" viewBox="0 0 23 17" xmlns="http://www.w3.org/2000/svg" xmlns:xlink="http://www.w3.org/1999/xlink"><title>HK</title><defs><linearGradient x1="50%" y1="0%" x2="50%" y2="100%" id="c"><stop stop-color="#FFF" offset="0%"/><stop stop-color="#F0F0F0" offset="100%"/></linearGradient><rect id="a" width="21" height="15" rx="1.5"/><filter x="-50%" y="-50%" width="200%" height="200%" filterUnits="objectBoundingBox" id="b"><feOffset dy=".5" in="SourceAlpha" result="shadowOffsetOuter1"/><feGaussianBlur stdDeviation=".5" in="shadowOffsetOuter1" result="shadowBlurOuter1"/><feColorMatrix values="0 0 0 0 0 0 0 0 0 0 0 0 0 0 0 0 0 0 0.16 0" in="shadowBlurOuter1"/></filter><linearGradient x1="50%" y1="0%" x2="50%" y2="100%" id="g"><stop stop-color="#F1371C" offset="0%"/><stop stop-color="#DE290F" offset="100%"/></linearGradient><path id="f" d="M0 0h21v15H0z"/><filter x="-50%" y="-50%" width="200%" height="200%" filterUnits="objectBoundingBox" id="e"><feMorphology radius=".25" operator="dilate" in="SourceAlpha" result="shadowSpreadOuter1"/><feOffset in="shadowSpreadOuter1" result="shadowOffsetOuter1"/><feColorMatrix values="0 0 0 0 0 0 0 0 0 0 0 0 0 0 0 0 0 0 0.06 0" in="shadowOffsetOuter1"/></filter><path d="M12 7.19c.8.5.94.5 1.5.5.46 0 .55-.5 1.5-.5 0-.83-.9-1.5-2-1.5s-2 .67-2 1.5c0 .4.2-.5 1 0zM13.25 7a.25.25 0 1 0 0-.5.25.25 0 0 0 0 .5zm-1.81 1.96c-.23.92-.19 1.05-.01 1.58.14.44.64.37.94 1.28.78-.26 1.15-1.32.8-2.37-.34-1.05-1.25-1.7-2.04-1.44-.39.13.54.04.3.95zM12 10.1a.25.25 0 1 0 .47-.15.25.25 0 0 0-.47.15zM9.58 8.98c-.94.06-1.05.14-1.5.47-.38.27-.16.73-.93 1.29.49.67 1.6.69 2.5.04.9-.65 1.23-1.72.74-2.4-.24-.32.13.53-.81.6zm-.9.89a.25.25 0 1 0 .3.4.25.25 0 0 0-.3-.4zM9 7.2c-.35-.87-.46-.95-.92-1.28-.37-.27-.74.08-1.5-.48-.5.67-.16 1.74.73 2.39.9.65 2.01.63 2.5-.04.24-.33-.46.29-.8-.59zm-1.12-.58a.25.25 0 1 0-.3.4.25.25 0 0 0 .3-.4zm2.62-.52c.72-.6.76-.74.94-1.27.14-.44-.3-.68-.01-1.58-.8-.26-1.7.38-2.05 1.43-.34 1.06.02 2.11.8 2.37.4.13-.4-.35.32-.95zm.2-1.25a.25.25 0 1 0-.47-.15.25.25 0 0 0 .47.15z" id="i"/><filter x="-50%" y="-50%" width="200%" height="200%" filterUnits="objectBoundingBox" id="h"><feOffset dy=".5" in="SourceAlpha" result="shadowOffsetOuter1"/><feColorMatrix values="0 0 0 0 0 0 0 0 0 0 0 0 0 0 0 0 0 0 0.06 0" in="shadowOffsetOuter1"/></filter></defs><g transform="translate(1 1)" fill="none" fill-rule="evenodd"><mask id="d" fill="#fff"><use xlink:href="#a"/></mask><use fill="#000" filter="url(#b)" xlink:href="#a"/><use fill="url(#c)" xlink:href="#a"/><g mask="url(#d)"><use fill="#000" filter="url(#e)" xlink:href="#f"/><use fill="url(#g)" xlink:href="#f"/></g><g mask="url(#d)"><use fill="#000" filter="url(#h)" xlink:href="#i"/><use fill="url(#c)" xlink:href="#i"/></g><rect mask="url(#d)" width="21" height="15" rx="1.5"/></g></svg>
